flaticon/household/sofa-16.svg

<svg xmlns="http://www.w3.org/2000/svg" width="32" height="32" viewBox="0 0 24 24">
    <path d="M 24 13.097656 L 24 11.132812 C 24 10.625 23.660156 10.199219 23.199219 10.054688 L 23.199219 5.773438 C 23.199219 5.296875 23.007812 4.867188 22.703125 4.546875 C 22.695312 4.539062 22.691406 4.527344 22.683594 4.515625 C 22.671875 4.507812 22.660156 4.503906 22.652344 4.496094 C 22.332031 4.191406 21.902344 4 21.425781 4 L 13.375 4 C 12.898438 4 12.46875 4.191406 12.148438 4.496094 C 12.140625 4.503906 12.125 4.507812 12.117188 4.515625 C 12.109375 4.527344 12.105469 4.539062 12.097656 4.546875 C 12.0625 4.585938 12.03125 4.625 12 4.664062 C 11.96875 4.625 11.9375 4.585938 11.902344 4.546875 C 11.894531 4.539062 11.890625 4.527344 11.882812 4.515625 C 11.875 4.507812 11.863281 4.503906 11.851562 4.496094 C 11.53125 4.191406 11.101562 4 10.625 4 L 2.574219 4 C 2.097656 4 1.667969 4.191406 1.347656 4.496094 C 1.339844 4.503906 1.328125 4.507812 1.316406 4.515625 C 1.308594 4.527344 1.304688 4.539062 1.296875 4.546875 C 0.992188 4.867188 0.800781 5.296875 0.800781 5.773438 L 0.800781 10.054688 C 0.339844 10.199219 0 10.625 0 11.132812 L 0 13.097656 C 0 13.359375 0.113281 13.59375 0.289062 13.757812 C 0.109375 13.992188 0 14.28125 0 14.601562 C 0 14.992188 0.164062 15.34375 0.421875 15.601562 C 0.164062 15.855469 0 16.207031 0 16.601562 C 0 17.371094 0.628906 18 1.398438 18 L 1.601562 18 L 1.601562 19.601562 C 1.601562 19.820312 1.777344 20 2 20 L 3.199219 20 C 3.363281 20 3.511719 19.902344 3.570312 19.75 L 4.269531 18 L 19.730469 18 L 20.429688 19.75 C 20.488281 19.902344 20.636719 20 20.800781 20 L 22 20 C 22.222656 20 22.398438 19.820312 22.398438 19.601562 L 22.398438 18 L 22.601562 18 C 23.371094 18 24 17.371094 24 16.601562 C 24 16.207031 23.835938 15.855469 23.578125 15.601562 C 23.835938 15.34375 24 14.992188 24 14.601562 C 24 14.28125 23.890625 13.992188 23.710938 13.757812 C 23.886719 13.59375 24 13.359375 24 13.097656 Z M 19.210938 13.136719 C 19.214844 13.09375 19.21875 13.054688 19.222656 13.015625 C 19.226562 12.972656 19.234375 12.929688 19.242188 12.886719 C 19.25 12.847656 19.257812 12.808594 19.265625 12.769531 C 19.273438 12.726562 19.285156 12.6875 19.296875 12.644531 C 19.308594 12.609375 19.320312 12.570312 19.332031 12.53125 C 19.34375 12.492188 19.359375 12.453125 19.375 12.414062 C 19.390625 12.378906 19.40625 12.339844 19.421875 12.304688 C 19.4375 12.269531 19.457031 12.230469 19.476562 12.191406 C 19.492188 12.160156 19.511719 12.125 19.527344 12.089844 C 19.550781 12.054688 19.570312 12.019531 19.59375 11.984375 C 19.613281 11.949219 19.636719 11.917969 19.65625 11.886719 C 19.679688 11.851562 19.707031 11.820312 19.730469 11.785156 C 19.753906 11.757812 19.777344 11.726562 19.804688 11.695312 C 19.832031 11.664062 19.859375 11.636719 19.886719 11.605469 C 19.914062 11.578125 19.941406 11.546875 19.964844 11.523438 C 19.996094 11.492188 20.027344 11.464844 20.058594 11.4375 C 20.089844 11.410156 20.117188 11.386719 20.144531 11.363281 C 20.179688 11.335938 20.214844 11.3125 20.246094 11.285156 C 20.277344 11.265625 20.308594 11.242188 20.339844 11.222656 C 20.375 11.195312 20.414062 11.175781 20.449219 11.152344 C 20.480469 11.132812 20.511719 11.113281 20.546875 11.097656 C 20.585938 11.078125 20.625 11.058594 20.664062 11.039062 C 20.699219 11.023438 20.730469 11.007812 20.765625 10.992188 C 20.804688 10.976562 20.851562 10.960938 20.894531 10.945312 C 20.925781 10.933594 20.960938 10.921875 20.992188 10.910156 C 21.039062 10.898438 21.085938 10.886719 21.132812 10.875 C 21.167969 10.867188 21.199219 10.855469 21.234375 10.851562 C 21.285156 10.839844 21.34375 10.832031 21.398438 10.824219 C 21.425781 10.820312 21.453125 10.816406 21.480469 10.8125 C 21.5625 10.804688 21.648438 10.800781 21.734375 10.800781 L 22.867188 10.800781 C 23.050781 10.800781 23.199219 10.949219 23.199219 11.132812 L 23.199219 13.097656 C 23.199219 13.15625 23.15625 13.199219 23.097656 13.199219 L 19.207031 13.199219 C 19.207031 13.179688 19.207031 13.15625 19.210938 13.136719 Z M 21.425781 4.800781 C 21.546875 4.800781 21.660156 4.824219 21.769531 4.863281 L 20.917969 5.71875 C 20.761719 5.875 20.761719 6.125 20.917969 6.28125 C 20.996094 6.359375 21.097656 6.398438 21.199219 6.398438 C 21.300781 6.398438 21.40625 6.359375 21.484375 6.28125 L 22.335938 5.429688 C 22.375 5.539062 22.398438 5.652344 22.398438 5.773438 L 22.398438 10 L 21.734375 10 C 21.621094 10 21.507812 10.007812 21.398438 10.015625 C 21.359375 10.019531 21.324219 10.027344 21.285156 10.035156 C 21.214844 10.042969 21.140625 10.050781 21.070312 10.066406 C 21.027344 10.074219 20.988281 10.089844 20.945312 10.097656 C 20.878906 10.113281 20.816406 10.128906 20.753906 10.148438 C 20.710938 10.160156 20.667969 10.179688 20.625 10.191406 C 20.566406 10.214844 20.507812 10.234375 20.453125 10.257812 C 20.410156 10.273438 20.367188 10.296875 20.324219 10.316406 C 20.269531 10.34375 20.214844 10.367188 20.164062 10.394531 C 20.121094 10.417969 20.082031 10.441406 20.042969 10.464844 C 19.992188 10.496094 19.9375 10.527344 19.890625 10.558594 C 19.851562 10.585938 19.8125 10.613281 19.773438 10.640625 C 19.726562 10.675781 19.679688 10.710938 19.636719 10.746094 C 19.597656 10.777344 19.5625 10.808594 19.527344 10.839844 C 19.484375 10.878906 19.441406 10.917969 19.398438 10.957031 C 19.367188 10.992188 19.332031 11.027344 19.300781 11.0625 C 19.261719 11.105469 19.222656 11.144531 19.183594 11.191406 C 19.152344 11.226562 19.125 11.265625 19.09375 11.304688 C 19.058594 11.347656 19.023438 11.394531 18.992188 11.441406 C 18.964844 11.480469 18.9375 11.523438 18.914062 11.5625 C 18.882812 11.613281 18.851562 11.660156 18.824219 11.710938 C 18.800781 11.753906 18.777344 11.796875 18.757812 11.84375 C 18.730469 11.894531 18.703125 11.945312 18.683594 11.996094 C 18.660156 12.042969 18.644531 12.089844 18.625 12.136719 C 18.605469 12.1875 18.585938 12.242188 18.566406 12.296875 C 18.550781 12.34375 18.539062 12.394531 18.523438 12.445312 C 18.507812 12.5 18.492188 12.554688 18.480469 12.609375 C 18.46875 12.660156 18.460938 12.710938 18.453125 12.761719 C 18.441406 12.820312 18.433594 12.875 18.425781 12.933594 C 18.417969 12.988281 18.414062 13.039062 18.410156 13.09375 C 18.410156 13.128906 18.402344 13.164062 18.402344 13.199219 L 13.375 13.199219 C 13.253906 13.199219 13.136719 13.175781 13.03125 13.136719 L 13.882812 12.28125 C 14.039062 12.125 14.039062 11.875 13.882812 11.71875 C 13.726562 11.5625 13.472656 11.5625 13.316406 11.71875 L 12.464844 12.570312 C 12.425781 12.460938 12.398438 12.347656 12.398438 12.226562 L 12.398438 5.773438 C 12.398438 5.652344 12.425781 5.539062 12.464844 5.429688 L 13.316406 6.28125 C 13.394531 6.359375 13.496094 6.398438 13.601562 6.398438 C 13.703125 6.398438 13.804688 6.359375 13.882812 6.28125 C 14.039062 6.125 14.039062 5.875 13.882812 5.71875 L 13.03125 4.863281 C 13.136719 4.824219 13.253906 4.800781 13.375 4.800781 Z M 10.625 4.800781 C 10.746094 4.800781 10.863281 4.824219 10.96875 4.863281 L 10.117188 5.71875 C 9.960938 5.875 9.960938 6.125 10.117188 6.28125 C 10.195312 6.359375 10.296875 6.398438 10.398438 6.398438 C 10.503906 6.398438 10.605469 6.359375 10.683594 6.28125 L 11.535156 5.429688 C 11.574219 5.539062 11.601562 5.652344 11.601562 5.773438 L 11.601562 12.226562 C 11.601562 12.347656 11.574219 12.460938 11.535156 12.570312 L 10.683594 11.71875 C 10.527344 11.5625 10.273438 11.5625 10.117188 11.71875 C 9.960938 11.875 9.960938 12.125 10.117188 12.28125 L 10.96875 13.136719 C 10.863281 13.175781 10.746094 13.199219 10.625 13.199219 L 5.597656 13.199219 C 5.59375 13.164062 5.589844 13.128906 5.589844 13.09375 C 5.585938 13.039062 5.578125 12.988281 5.574219 12.933594 C 5.566406 12.875 5.558594 12.820312 5.546875 12.765625 C 5.539062 12.710938 5.53125 12.660156 5.519531 12.609375 C 5.507812 12.554688 5.492188 12.496094 5.476562 12.445312 C 5.460938 12.394531 5.449219 12.34375 5.433594 12.296875 C 5.414062 12.242188 5.394531 12.1875 5.375 12.136719 C 5.355469 12.089844 5.339844 12.042969 5.316406 11.996094 C 5.296875 11.941406 5.269531 11.894531 5.242188 11.839844 C 5.222656 11.796875 5.199219 11.753906 5.175781 11.710938 C 5.148438 11.660156 5.117188 11.613281 5.085938 11.5625 C 5.0625 11.523438 5.035156 11.480469 5.007812 11.441406 C 4.976562 11.394531 4.941406 11.347656 4.90625 11.304688 C 4.875 11.265625 4.847656 11.226562 4.816406 11.191406 C 4.777344 11.144531 4.738281 11.105469 4.699219 11.0625 C 4.667969 11.027344 4.636719 10.992188 4.601562 10.957031 C 4.558594 10.917969 4.515625 10.878906 4.472656 10.839844 C 4.4375 10.808594 4.402344 10.777344 4.363281 10.746094 C 4.320312 10.710938 4.273438 10.675781 4.226562 10.640625 C 4.1875 10.613281 4.148438 10.585938 4.109375 10.558594 C 4.0625 10.527344 4.007812 10.496094 3.957031 10.464844 C 3.917969 10.441406 3.878906 10.417969 3.835938 10.394531 C 3.785156 10.367188 3.730469 10.339844 3.675781 10.316406 C 3.632812 10.296875 3.589844 10.273438 3.546875 10.257812 C 3.492188 10.234375 3.433594 10.214844 3.375 10.191406 C 3.332031 10.179688 3.289062 10.160156 3.246094 10.148438 C 3.183594 10.128906 3.117188 10.113281 3.054688 10.097656 C 3.011719 10.089844 2.972656 10.074219 2.929688 10.066406 C 2.859375 10.050781 2.785156 10.042969 2.714844 10.035156 C 2.675781 10.027344 2.640625 10.019531 2.601562 10.015625 C 2.492188 10.007812 2.378906 10 2.265625 10 L 1.601562 10 L 1.601562 5.773438 C 1.601562 5.652344 1.625 5.539062 1.664062 5.429688 L 2.515625 6.28125 C 2.59375 6.359375 2.699219 6.398438 2.800781 6.398438 C 2.902344 6.398438 3.003906 6.359375 3.082031 6.28125 C 3.238281 6.125 3.238281 5.875 3.082031 5.71875 L 2.230469 4.863281 C 2.335938 4.824219 2.453125 4.800781 2.574219 4.800781 Z M 0.800781 11.132812 C 0.800781 10.949219 0.949219 10.800781 1.132812 10.800781 L 2.265625 10.800781 C 2.351562 10.800781 2.4375 10.804688 2.519531 10.8125 C 2.546875 10.816406 2.574219 10.820312 2.605469 10.824219 C 2.660156 10.832031 2.714844 10.839844 2.769531 10.851562 C 2.800781 10.855469 2.832031 10.867188 2.867188 10.875 C 2.914062 10.886719 2.960938 10.898438 3.007812 10.910156 C 3.042969 10.921875 3.074219 10.933594 3.105469 10.945312 C 3.152344 10.960938 3.195312 10.976562 3.238281 10.992188 C 3.269531 11.007812 3.300781 11.023438 3.335938 11.039062 C 3.375 11.058594 3.414062 11.078125 3.457031 11.097656 C 3.488281 11.113281 3.519531 11.132812 3.550781 11.152344 C 3.589844 11.175781 3.625 11.195312 3.660156 11.222656 C 3.691406 11.242188 3.722656 11.265625 3.753906 11.285156 C 3.789062 11.3125 3.820312 11.335938 3.855469 11.363281 C 3.882812 11.386719 3.914062 11.410156 3.941406 11.4375 C 3.972656 11.464844 4.003906 11.492188 4.035156 11.523438 C 4.0625 11.546875 4.085938 11.578125 4.113281 11.605469 C 4.140625 11.636719 4.171875 11.664062 4.199219 11.695312 C 4.222656 11.726562 4.246094 11.757812 4.269531 11.785156 C 4.292969 11.820312 4.320312 11.851562 4.34375 11.886719 C 4.367188 11.917969 4.386719 11.949219 4.40625 11.984375 C 4.429688 12.019531 4.453125 12.054688 4.472656 12.089844 C 4.492188 12.125 4.507812 12.15625 4.527344 12.191406 C 4.542969 12.230469 4.5625 12.269531 4.582031 12.304688 C 4.597656 12.339844 4.609375 12.378906 4.625 12.414062 C 4.640625 12.453125 4.65625 12.492188 4.667969 12.53125 C 4.679688 12.570312 4.691406 12.609375 4.703125 12.644531 C 4.714844 12.6875 4.726562 12.726562 4.734375 12.769531 C 4.742188 12.808594 4.75 12.847656 4.757812 12.886719 C 4.765625 12.929688 4.773438 12.972656 4.777344 13.015625 C 4.785156 13.054688 4.789062 13.09375 4.789062 13.136719 C 4.792969 13.15625 4.792969 13.179688 4.792969 13.199219 L 0.902344 13.199219 C 0.84375 13.199219 0.800781 13.15625 0.800781 13.097656 Z M 2.929688 19.199219 L 2.398438 19.199219 L 2.398438 18 L 3.410156 18 Z M 21.601562 19.199219 L 21.070312 19.199219 L 20.589844 18 L 21.601562 18 Z M 23.199219 16.601562 C 23.199219 16.929688 22.929688 17.199219 22.601562 17.199219 L 1.398438 17.199219 C 1.070312 17.199219 0.800781 16.929688 0.800781 16.601562 C 0.800781 16.269531 1.070312 16 1.398438 16 L 22.601562 16 C 22.929688 16 23.199219 16.269531 23.199219 16.601562 Z M 1.398438 15.199219 C 1.070312 15.199219 0.800781 14.929688 0.800781 14.601562 C 0.800781 14.269531 1.070312 14 1.398438 14 L 22.601562 14 C 22.929688 14 23.199219 14.269531 23.199219 14.601562 C 23.199219 14.929688 22.929688 15.199219 22.601562 15.199219 Z M 1.398438 15.199219"/>
    <path d="M5.316406 9.484375C5.394531 9.5625 5.496094 9.601562 5.601562 9.601562 5.703125 9.601562 5.804688 9.5625 5.882812 9.484375L6.398438 8.964844 6.917969 9.484375C6.996094 9.5625 7.097656 9.601562 7.199219 9.601562 7.300781 9.601562 7.40625 9.5625 7.484375 9.484375 7.640625 9.328125 7.640625 9.074219 7.484375 8.917969L6.964844 8.398438 7.484375 7.882812C7.640625 7.726562 7.640625 7.472656 7.484375 7.316406 7.328125 7.160156 7.074219 7.160156 6.917969 7.316406L6.398438 7.835938 5.882812 7.316406C5.726562 7.160156 5.472656 7.160156 5.316406 7.316406 5.160156 7.472656 5.160156 7.726562 5.316406 7.882812L5.835938 8.398438 5.316406 8.917969C5.160156 9.074219 5.160156 9.328125 5.316406 9.484375zM16.515625 9.484375C16.59375 9.5625 16.699219 9.601562 16.800781 9.601562 16.902344 9.601562 17.003906 9.5625 17.082031 9.484375L17.601562 8.964844 18.117188 9.484375C18.195312 9.5625 18.296875 9.601562 18.398438 9.601562 18.503906 9.601562 18.605469 9.5625 18.683594 9.484375 18.839844 9.328125 18.839844 9.074219 18.683594 8.917969L18.164062 8.398438 18.683594 7.882812C18.839844 7.726562 18.839844 7.472656 18.683594 7.316406 18.527344 7.160156 18.273438 7.160156 18.117188 7.316406L17.601562 7.835938 17.082031 7.316406C16.925781 7.160156 16.671875 7.160156 16.515625 7.316406 16.359375 7.472656 16.359375 7.726562 16.515625 7.882812L17.035156 8.398438 16.515625 8.917969C16.359375 9.074219 16.359375 9.328125 16.515625 9.484375zM16.515625 9.484375"/>
</svg>

<svg xmlns="http://www.w3.org/2000/svg" width="32" height="32" viewBox="0 0 24 24">
    <path d="M24 13.098v-1.965c0-.508-.34-.934-.8-1.078V5.773c0-.476-.192-.906-.497-1.226-.008-.008-.012-.02-.02-.031-.011-.008-.023-.012-.03-.02A1.774 1.774 0 0 0 21.425 4h-8.051c-.477 0-.906.191-1.227.496-.007.008-.023.012-.03.02-.009.011-.013.023-.02.03-.036.04-.067.079-.098.118-.031-.039-.063-.078-.098-.117-.007-.008-.011-.02-.02-.031-.007-.008-.019-.012-.03-.02A1.774 1.774 0 0 0 10.625 4h-8.05c-.477 0-.907.191-1.227.496-.008.008-.02.012-.032.02-.007.011-.011.023-.02.03-.304.321-.495.75-.495 1.227v4.282c-.461.144-.801.57-.801 1.078v1.965c0 .261.113.496.29.66-.18.234-.29.523-.29.844 0 .39.164.742.422 1A1.398 1.398 0 0 0 1.398 18h.204v1.602c0 .218.175.398.398.398h1.2a.395.395 0 0 0 .37-.25l.7-1.75h15.46l.7 1.75c.058.152.207.25.37.25H22c.223 0 .398-.18.398-.398V18h.204a1.398 1.398 0 1 0 .977-2.398c.257-.258.421-.61.421-1 0-.32-.11-.61-.29-.844a.902.902 0 0 0 .29-.66zm-4.79.039l.013-.121c.004-.043.011-.086.02-.13l.023-.116c.007-.043.02-.082.03-.125.013-.036.024-.075.036-.114.012-.039.027-.078.043-.117l.047-.11c.015-.034.035-.074.055-.113.015-.03.035-.066.05-.101.024-.035.043-.07.067-.106.02-.035.043-.066.062-.097.024-.035.051-.067.074-.102.024-.027.047-.058.075-.09l.082-.09.078-.082c.031-.03.062-.058.094-.085.03-.028.058-.051.086-.075.035-.027.07-.05.101-.078.031-.02.063-.043.094-.062.035-.028.074-.047.11-.07a.786.786 0 0 1 .097-.055l.117-.059.102-.047.129-.047.097-.035.14-.035c.036-.008.067-.02.102-.023.051-.012.11-.02.164-.028l.082-.011c.082-.008.168-.012.254-.012h1.133c.184 0 .332.148.332.332v1.965a.099.099 0 0 1-.101.101h-3.891c0-.02 0-.043.004-.062zM21.427 4.8c.12 0 .234.023.344.062l-.852.856a.396.396 0 0 0 0 .562c.078.078.18.117.281.117.102 0 .207-.039.285-.117l.852-.851c.039.11.062.222.062.343V10h-.664c-.113 0-.226.008-.336.016-.039.004-.074.011-.113.02-.07.007-.144.015-.215.03-.043.008-.082.024-.125.032a2.736 2.736 0 0 0-.191.05c-.043.012-.086.032-.129.043-.059.024-.117.043-.172.067-.043.015-.086.039-.129.058-.054.028-.11.051-.16.079a3.332 3.332 0 0 0-.121.07c-.05.031-.105.062-.152.094l-.118.082c-.046.035-.093.07-.136.105-.04.031-.075.063-.11.094l-.129.117c-.03.035-.066.07-.097.105-.04.043-.078.083-.117.13-.032.035-.059.074-.09.113a2.11 2.11 0 0 0-.18.258c-.031.05-.062.097-.09.148a1.403 1.403 0 0 0-.066.133c-.028.05-.055.101-.074.152-.024.047-.04.094-.059.14l-.059.16c-.015.048-.027.099-.043.15-.015.054-.03.109-.043.163-.011.051-.02.102-.027.153a2.618 2.618 0 0 0-.043.332c0 .035-.008.07-.008.105h-5.027a.994.994 0 0 1-.344-.062l.852-.856a.396.396 0 0 0 0-.562.4.4 0 0 0-.567 0l-.851.851a1.014 1.014 0 0 1-.067-.343V5.773c0-.12.028-.234.067-.343l.851.851a.399.399 0 0 0 .567 0 .396.396 0 0 0 0-.562l-.852-.856a.994.994 0 0 1 .344-.062zm-10.801 0c.121 0 .238.023.344.062l-.852.856a.396.396 0 0 0 0 .562.399.399 0 0 0 .566 0l.852-.851c.04.11.067.222.067.343v6.454c0 .12-.028.234-.067.343l-.851-.851a.4.4 0 0 0-.567 0 .396.396 0 0 0 0 .562l.852.856a.994.994 0 0 1-.344.062H5.598c-.004-.035-.008-.07-.008-.105-.004-.055-.012-.106-.016-.16a2.154 2.154 0 0 0-.027-.168 1.856 1.856 0 0 0-.07-.32c-.016-.051-.028-.102-.043-.15l-.059-.16c-.02-.046-.035-.093-.059-.14-.02-.055-.046-.101-.074-.156a2.019 2.019 0 0 0-.066-.13c-.028-.05-.059-.097-.09-.148a2.11 2.11 0 0 0-.18-.257c-.031-.04-.058-.078-.09-.114-.039-.046-.078-.086-.117-.129a2.403 2.403 0 0 0-.097-.105l-.13-.117c-.035-.031-.07-.063-.109-.094a4.164 4.164 0 0 0-.136-.105l-.118-.082c-.046-.032-.101-.063-.152-.094a2.028 2.028 0 0 0-.281-.148c-.043-.02-.086-.044-.13-.06-.054-.023-.112-.042-.171-.066-.043-.011-.086-.03-.129-.043-.062-.02-.129-.035-.191-.05-.043-.008-.082-.024-.125-.032-.07-.015-.145-.023-.215-.03-.04-.009-.074-.016-.113-.02A4.722 4.722 0 0 0 2.266 10h-.664V5.773c0-.12.023-.234.062-.343l.852.851a.405.405 0 0 0 .285.117c.101 0 .203-.039.281-.117a.396.396 0 0 0 0-.562l-.852-.856a.994.994 0 0 1 .344-.062zM.801 11.133c0-.184.148-.332.332-.332h1.133a2.699 2.699 0 0 1 .34.023c.054.008.109.016.164.028.03.003.062.015.097.023l.14.035.098.035.133.047.098.047c.039.02.078.04.121.059.031.015.063.035.094.054.039.024.074.043.11.07.03.02.062.044.093.063l.101.078c.028.024.06.047.086.075.032.027.063.054.094.085.027.024.05.055.078.082.028.032.059.06.086.09.024.032.047.063.07.09.024.035.051.067.075.102a.831.831 0 0 1 .062.097c.024.036.047.07.067.106.02.035.035.066.054.101.016.04.035.079.055.114.016.035.027.074.043.11.016.038.031.077.043.116l.035.114c.012.043.024.082.031.125l.024.117c.008.043.015.086.02.129.007.039.011.078.011.12.004.02.004.044.004.063H.903a.099.099 0 0 1-.102-.101zm2.129 8.066h-.532V18H3.41zm18.672 0h-.532L20.59 18h1.012zm1.597-2.597a.6.6 0 0 1-.597.597H1.398a.6.6 0 0 1 0-1.199h21.204c.328 0 .597.27.597.602zM1.4 15.199a.6.6 0 0 1 0-1.199h21.203a.6.6 0 0 1 0 1.2zm0 0"/>
    <path d="M5.316 9.484a.399.399 0 0 0 .567 0l.515-.52.52.52c.078.079.18.118.281.118a.4.4 0 0 0 .285-.684l-.52-.52.52-.515a.4.4 0 0 0-.566-.567l-.52.52-.515-.52a.4.4 0 0 0-.567.567l.52.515-.52.52a.4.4 0 0 0 0 .566zm0 0M16.516 9.484a.405.405 0 0 0 .285.118c.101 0 .203-.04.281-.118l.52-.52.515.52a.399.399 0 0 0 .566 0 .4.4 0 0 0 0-.566l-.519-.52.52-.515a.4.4 0 0 0-.567-.567l-.515.52-.52-.52a.4.4 0 0 0-.566.567l.52.515-.52.52a.4.4 0 0 0 0 .566zm0 0"/>
</svg>
